!!!SOCIAL_FUNCTION:	songs of principal social dances with corn dance
!!!PDT:	1956
!!!OTL: No_71_Alligator_Dance_Song_(g).krn
!!!LANG: Non-Tone
!!!LING_GROUP: Muskogean
!!!REG: Florida
**kern
*staff1
=1-
*clefF4
*k[f#]
*M2/4
8.r
16d\
8.d\L
16B\Jk
=2
2A\
=3
8G\
16r
16A\
8.A\L
16G\Jk
=4||
*M3/4
4G\
8.r
16A\
12A\L
12G\
12B\J
=5||
*M2/4
2A\
=6
8E\
16r
16A\
8.A\L
16G\Jk
=7
8G\
16r
16d\
8.d\L
16B\Jk
=8
8G\
8r
4r
=9||
*M3/4
4B\
4r
8.B\L
16B\Jk
=10
4.B\
16r
16B\
8B\
16r
16B\
=11
4.B\
16r
16B\
8B\
16r
16B\
=12||
*M5/8
4.B\
16B\LL
16B\JJ
8r
==
*-
